;FLAVOR:Marlin
;TIME:5938
;Filament used: 6.352m
;Layer height: 0.2
;MINX:76.505
;MINY:83.006
;MINZ:0.2
;MAXX:133.495
;MAXY:126.994
;MAXZ:30
;Generated with Cura_SteamEngine 4.6.1
M140 S60
M105
M190 S60
M104 S220
M105
M109 S220
M82 ;absolute extrusion mode
G21 ;metric values
G90 ;absolute positioning
M82 ;set extruder to absolute mode
M107 ;start with the fan off
G28 X0 Y0 ;move X/Y to min endstops
G28 Z0 ;move Z to min endstops
G1 Z15.0 F100 ;move the platform down 15mm
G92 E0 ;zero the extruded length
G1 F200 E3 ;extrude 3mm of feed stock
G92 E0 ;zero the extruded length again
G1 F100
G0 Y20 F100
M117 Printing...
G5
G92 E0
G92 E0
G1 F2400 E-6
;LAYER_COUNT:150
;LAYER:0
M106 S255
M204 S3000
M205 X10 Y10
G1 F600 Z0.275
G0 F3000 X126.696 Y84.156 Z0.275
M204 S1800
M205 X8 Y8
;TYPE:SKIRT
G1 F600 Z0.2
G1 F2400 E0
G1 X127.343 Y84.205 E0.03021
G1 X127.98 Y84.333 E0.06047
G1 X128.561 Y84.524 E0.08895
G1 X129.355 Y84.881 E0.12948
G1 X129.905 Y85.226 E0.15971
G1 X130.408 Y85.637 E0.18996
G1 X130.83 Y86.074 E0.21825
G1 X131.02 Y86.295 E0.23182
G1 X131.412 Y86.813 E0.26207
G1 X131.738 Y87.375 E0.29232
G1 X131.998 Y87.987 E0.32328
G1 X132.234 Y88.78 E0.36181
G1 X132.333 Y89.422 E0.39206
G1 X132.366 Y90.578 E0.44591
G1 X132.375 Y119.287 E1.78272
G1 X132.366 Y120.054 E1.81844
G1 X132.272 Y120.979 E1.86173
G1 X132.066 Y121.843 E1.90309
G1 X131.828 Y122.448 E1.93336
G1 X131.353 Y123.268 E1.97749
G1 X130.799 Y123.983 E2.01961
G1 X130.333 Y124.435 E2.04983
G1 X129.798 Y124.839 E2.08105
G1 X129.07 Y125.27 E2.12045
G1 X128.472 Y125.522 E2.15066
G1 X127.77 Y125.714 E2.18455
G1 X127.536 Y125.761 E2.19566
G1 X126.673 Y125.861 E2.23612
G1 X126.079 Y125.874 E2.26378
G1 X84.207 Y125.874 E4.21352
G1 X83.434 Y125.863 E4.24952
G1 X82.787 Y125.814 E4.27973
G1 X82.079 Y125.672 E4.31336
G1 X81.457 Y125.487 E4.34357
G1 X80.862 Y125.226 E4.37383
G1 X80.339 Y124.919 E4.40206
G1 X79.62 Y124.39 E4.44363
G1 X79.156 Y123.936 E4.47386
G1 X78.616 Y123.229 E4.51528
G1 X78.19 Y122.484 E4.55524
G1 X77.861 Y121.594 E4.59943
G1 X77.697 Y120.831 E4.63577
G1 X77.646 Y120.172 E4.66654
G1 X77.634 Y119.38 E4.70343
G1 X77.625 Y90.663 E6.04061
G1 X77.635 Y89.941 E6.07423
G1 X77.728 Y89.02 E6.11734
G1 X77.936 Y88.151 E6.15894
G1 X78.173 Y87.546 E6.1892
G1 X78.571 Y86.84 E6.22694
G1 X79.085 Y86.142 E6.2673
G1 X79.539 Y85.677 E6.29756
G1 X80.101 Y85.234 E6.33088
G1 X80.855 Y84.767 E6.37218
G1 X81.449 Y84.505 E6.40241
G1 X82.264 Y84.277 E6.44182
G1 X82.484 Y84.234 E6.45226
G1 X83.405 Y84.137 E6.49538
G1 X84.039 Y84.126 E6.52491
G1 X125.987 Y84.146 E8.47818
G1 X126.696 Y84.156 E8.5112
M204 S3000
M205 X10 Y10
G0 F3000 X126.704 Y83.596
M204 S1800
M205 X8 Y8
G1 F2400 X127.385 Y83.645 E8.54299
G1 X128.056 Y83.774 E8.57481
G1 X128.767 Y84.004 E8.6096
G1 X129.592 Y84.372 E8.65167
G1 X130.174 Y84.731 E8.68351
G1 X130.709 Y85.154 E8.71527
G1 X131.254 Y85.709 E8.75149
G1 X131.859 Y86.473 E8.79687
G1 X132.207 Y87.061 E8.82868
G1 X132.526 Y87.802 E8.86625
G1 X132.773 Y88.627 E8.90635
G1 X132.884 Y89.301 E8.93815
G1 X132.914 Y89.812 E8.96199
G1 X132.926 Y90.569 E8.99724
G1 X132.935 Y119.286 E10.33443
G1 X132.926 Y120.061 E10.37052
G1 X132.877 Y120.743 E10.40236
G1 X132.777 Y121.319 E10.42958
G1 X132.609 Y121.982 E10.46142
G1 X132.366 Y122.62 E10.49321
G1 X132.049 Y123.225 E10.52502
G1 X131.663 Y123.8 E10.55727
G1 X131.237 Y124.333 E10.58904
G1 X130.751 Y124.814 E10.62088
G1 X130.106 Y125.306 E10.65865
G1 X129.35 Y125.756 E10.69962
G1 X128.723 Y126.026 E10.73141
G1 X127.88 Y126.263 E10.77218
G1 X127.646 Y126.31 E10.7833
G1 X126.691 Y126.421 E10.82806
G1 X126.086 Y126.434 E10.85624
G1 X84.207 Y126.434 E12.8063
G1 X83.426 Y126.423 E12.84267
G1 X82.745 Y126.374 E12.87447
G1 X82.19 Y126.273 E12.90073
G1 X81.297 Y126.025 E12.94389
G1 X80.669 Y125.756 E12.9757
G1 X80.028 Y125.384 E13.01021
G1 X79.281 Y124.837 E13.05332
G1 X78.788 Y124.364 E13.08514
G1 X78.354 Y123.837 E13.11693
G1 X78.032 Y123.353 E13.14399
G1 X77.7 Y122.756 E13.1758
G1 X77.439 Y122.125 E13.2076
G1 X77.287 Y121.613 E13.23247
G1 X77.148 Y120.945 E13.26424
G1 X77.086 Y120.18 E13.29998
G1 X77.074 Y119.388 E13.33686
G1 X77.065 Y90.664 E14.67437
G1 X77.075 Y89.933 E14.70841
G1 X77.178 Y88.915 E14.75606
G1 X77.392 Y88.012 E14.79927
G1 X77.636 Y87.374 E14.83108
G1 X78.105 Y86.528 E14.87612
G1 X78.638 Y85.803 E14.91802
G1 X79.111 Y85.31 E14.94983
G1 X79.785 Y84.772 E14.98999
G1 X80.567 Y84.286 E15.03286
G1 X81.189 Y84.005 E15.06464
G1 X82.157 Y83.727 E15.11154
G1 X83.054 Y83.593 E15.15377
G1 X84.03 Y83.566 E15.19923
G1 X125.987 Y83.586 E17.15293
G1 X126.704 Y83.596 E17.18632
M204 S3000
M205 X10 Y10
G0 F3000 X126.711 Y83.036
M204 S1800
M205 X8 Y8
G1 F2400 X127.425 Y83.086 E17.21965
G1 X128.128 Y83.215 E17.25293
G1 X128.973 Y83.483 E17.2942
G1 X129.827 Y83.863 E17.33773
G1 X130.439 Y84.234 E17.37105
G1 X131.006 Y84.67 E17.40436
G1 X131.679 Y85.344 E17.44871
G1 X132.304 Y86.132 E17.49554
G1 X132.674 Y86.745 E17.52888
G1 X133.054 Y87.616 E17.57313
G1 X133.312 Y88.471 E17.61472
G1 X133.433 Y89.176 E17.64803
G1 X133.474 Y89.804 E17.67733
G1 X133.486 Y90.561 E17.71258
G1 X133.495 Y119.286 E19.05014
G1 X133.485 Y120.069 E19.0866
G1 X133.436 Y120.782 E19.11988
G1 X133.327 Y121.425 E19.15025
G1 X133.153 Y122.119 E19.18357
G1 X132.903 Y122.789 E19.21686
G1 X132.58 Y123.427 E19.25016
G1 X132.268 Y123.915 E19.27713
G1 X131.676 Y124.683 E19.32229
G1 X131.171 Y125.19 E19.35561
G1 X130.414 Y125.774 E19.40013
G1 X129.632 Y126.241 E19.44254
G1 X128.977 Y126.53 E19.47587
G1 X127.99 Y126.812 E19.52367
G1 X127.756 Y126.859 E19.53479
G1 X126.71 Y126.98 E19.58382
G1 X126.092 Y126.994 E19.6126
G1 X84.207 Y126.994 E21.56294
G1 X83.418 Y126.983 E21.59969
G1 X82.705 Y126.933 E21.63297
G1 X82.063 Y126.818 E21.66334
G1 X81.14 Y126.563 E21.70793
G1 X80.48 Y126.287 E21.74124
G1 X79.717 Y125.85 E21.78218
G1 X78.943 Y125.285 E21.8268
G1 X78.423 Y124.794 E21.8601
G1 X77.961 Y124.248 E21.89341
G1 X77.672 Y123.83 E21.91707
G1 X77.21 Y123.03 E21.96009
G1 X76.932 Y122.371 E21.99339
G1 X76.78 Y121.885 E22.0171
G1 X76.599 Y121.059 E22.05648
G1 X76.526 Y120.189 E22.09713
G1 X76.514 Y119.397 E22.13401
G1 X76.505 Y90.664 E23.47194
G1 X76.515 Y89.925 E23.50636
G1 X76.564 Y89.212 E23.53964
G1 X76.674 Y88.569 E23.57001
G1 X76.848 Y87.875 E23.60333
G1 X77.098 Y87.205 E23.63663
G1 X77.421 Y86.567 E23.66992
G1 X77.76 Y86.036 E23.69926
G1 X78.191 Y85.465 E23.73257
G1 X78.682 Y84.945 E23.76587
G1 X79.469 Y84.31 E23.81296
G1 X80.277 Y83.806 E23.8573
G1 X80.927 Y83.506 E23.89064
G1 X81.606 Y83.281 E23.92395
G1 X82.269 Y83.135 E23.95556
G1 X82.978 Y83.037 E23.98889
G1 X84.02 Y83.006 E24.03743
G1 X125.987 Y83.026 E25.99159
G1 X126.711 Y83.036 E26.0253
M204 S3000
M205 X10 Y10
G1 F2400 E20.0253
;MESH:Device-ArduinoBeetle-Housing.stl
G0 F3000 X126.233 Y88.74
G0 X126.233 Y90.26
G0 X125.695 Y118.914
M204 S1800
M205 X8 Y8
;TYPE:WALL-INNER
G1 F2400 E26.0253
G1 F1500 X125.695 Y119.194 E26.03834
G1 X125.415 Y119.194 E26.04678
G1 X84.313 Y119.194 E27.96066
G1 X84.305 Y91.085 E29.26953
G1 X84.305 Y90.805 E29.28257
G1 X84.585 Y90.805 E29.29101
G1 X125.687 Y90.806 E31.20489
G1 X125.695 Y118.914 E32.51372
M204 S3000
M205 X10 Y10
G0 F3000 X126.255 Y119.474
M204 S1800
M205 X8 Y8
G1 F1500 X126.255 Y119.754 E32.52676
G1 X125.975 Y119.754 E32.5352
G1 X83.753 Y119.754 E34.50123
G1 X83.745 Y90.525 E35.86226
G1 X83.745 Y90.245 E35.87529
G1 X84.025 Y90.245 E35.88373
G1 X126.247 Y90.246 E37.84977
G1 X126.255 Y119.474 E39.21074
M204 S3000
M205 X10 Y10
G0 F3000 X126.154 Y119.474
G0 X126.177 Y90.316
G0 X126.574 Y89.699
M204 S1800
M205 X8 Y8
;TYPE:WALL-OUTER
G1 F1500 X126.675 Y89.743 E39.21587
G1 X126.73 Y89.792 E39.2193
G1 X126.789 Y89.885 E39.22443
G1 X126.807 Y89.955 E39.2278
G1 X126.815 Y119.933 E40.6237
G1 X126.815 Y119.971 E40.62547
G1 X126.786 Y120.118 E40.63245
G1 X126.719 Y120.219 E40.63809
G1 X126.619 Y120.286 E40.64369
G1 X126.473 Y120.314 E40.65062
G1 X126.435 Y120.314 E40.65239
G1 X83.522 Y120.314 E42.6506
G1 X83.426 Y120.301 E42.65511
G1 X83.325 Y120.257 E42.66024
G1 X83.27 Y120.208 E42.66367
G1 X83.211 Y120.115 E42.66879
G1 X83.193 Y120.045 E42.67216
G1 X83.185 Y90.066 E44.06811
G1 X83.185 Y90.029 E44.06983
G1 X83.214 Y89.882 E44.07681
G1 X83.281 Y89.781 E44.08245
G1 X83.382 Y89.714 E44.0881
G1 X83.529 Y89.685 E44.09507
G1 X83.566 Y89.685 E44.09679
G1 X126.478 Y89.686 E46.09496
G1 X126.574 Y89.699 E46.09947
M204 S3000
M205 X10 Y10
G0 F3000 X126.675 Y89.743
G0 X126.73 Y89.792
G0 X126.739 Y89.806
G0 X126.177 Y90.316
G0 X125.137 Y91.356
M204 S1800
M205 X8 Y8
;TYPE:SKIN
G1 F1500 X125.145 Y118.644 E47.37011
G1 X84.863 Y118.644 E49.24581
G1 X84.855 Y91.355 E50.5165
G1 X125.137 Y91.356 E52.3922
M204 S3000
M205 X10 Y10
G0 F3000 X124.877 Y92.406
M204 S1800
M205 X8 Y8
G1 F1500 X124.085 Y91.615 E52.44432
M204 S3000
M205 X10 Y10
G0 F3000 X123.293 Y91.615
M204 S1800
M205 X8 Y8
G1 F1500 X124.877 Y93.198 E52.5486
M204 S3000
M205 X10 Y10
G0 F3000 X124.877 Y93.99
M204 S1800
M205 X8 Y8
G1 F1500 X122.502 Y91.615 E52.705
M204 S3000
M205 X10 Y10
G0 F3000 X121.71 Y91.615
M204 S1800
M205 X8 Y8
G1 F1500 X124.877 Y94.783 E52.91358
M204 S3000
M205 X10 Y10
G0 F3000 X124.877 Y95.575
M204 S1800
M205 X8 Y8
G1 F1500 X120.918 Y91.615 E53.17432
M204 S3000
M205 X10 Y10
G0 F3000 X120.126 Y91.615
M204 S1800
M205 X8 Y8
G1 F1500 X124.877 Y96.367 E53.48721
M204 S3000
M205 X10 Y10
G0 F3000 X124.878 Y97.16
M204 S1800
M205 X8 Y8
G1 F1500 X119.334 Y91.615 E53.85233
M204 S3000
M205 X10 Y10
G0 F3000 X118.542 Y91.615
M204 S1800
M205 X8 Y8
G1 F1500 X124.878 Y97.951 E54.26957
M204 S3000
M205 X10 Y10
G0 F3000 X124.878 Y98.743
M204 S1800
M205 X8 Y8
G1 F1500 X117.75 Y91.615 E54.73896
M204 S3000
M205 X10 Y10
G0 F3000 X116.958 Y91.615
M204 S1800
M205 X8 Y8
G1 F1500 X124.879 Y99.536 E55.26057
M204 S3000
M205 X10 Y10
G0 F3000 X124.879 Y100.328
M204 S1800
M205 X8 Y8
G1 F1500 X116.166 Y91.615 E55.83433
M204 S3000
M205 X10 Y10
G0 F3000 X115.374 Y91.615
M204 S1800
M205 X8 Y8
G1 F1500 X124.879 Y101.12 E56.46025
M204 S3000
M205 X10 Y10
G0 F3000 X124.88 Y101.913
M204 S1800
M205 X8 Y8
G1 F1500 X114.582 Y91.615 E57.1384
M204 S3000
M205 X10 Y10
G0 F3000 X113.79 Y91.615
M204 S1800
M205 X8 Y8
G1 F1500 X124.88 Y102.705 E57.86869
M204 S3000
M205 X10 Y10
G0 F3000 X124.88 Y103.497
M204 S1800
M205 X8 Y8
G1 F1500 X112.998 Y91.615 E58.65114
M204 S3000
M205 X10 Y10
G0 F3000 X112.206 Y91.615
M204 S1800
M205 X8 Y8
G1 F1500 X124.88 Y104.289 E59.48575
M204 S3000
M205 X10 Y10
G0 F3000 X124.88 Y105.081
M204 S1800
M205 X8 Y8
G1 F1500 X111.414 Y91.615 E60.3725
M204 S3000
M205 X10 Y10
G0 F3000 X110.622 Y91.615
M204 S1800
M205 X8 Y8
G1 F1500 X124.88 Y105.873 E61.31142
M204 S3000
M205 X10 Y10
G0 F3000 X124.881 Y106.666
M204 S1800
M205 X8 Y8
G1 F1500 X109.83 Y91.615 E62.30255
M204 S3000
M205 X10 Y10
G0 F3000 X109.038 Y91.615
M204 S1800
M205 X8 Y8
G1 F1500 X124.881 Y107.458 E63.34584
M204 S3000
M205 X10 Y10
G0 F3000 X124.881 Y108.25
M204 S1800
M205 X8 Y8
G1 F1500 X108.246 Y91.615 E64.44128
M204 S3000
M205 X10 Y10
G0 F3000 X107.454 Y91.615
M204 S1800
M205 X8 Y8
G1 F1500 X124.882 Y109.042 E65.58891
M204 S3000
M205 X10 Y10
G0 F3000 X124.882 Y109.834
M204 S1800
M205 X8 Y8
G1 F1500 X106.662 Y91.615 E66.7887
M204 S3000
M205 X10 Y10
G0 F3000 X105.87 Y91.615
M204 S1800
M205 X8 Y8
G1 F1500 X124.882 Y110.626 E68.04064
M204 S3000
M205 X10 Y10
G0 F3000 X124.882 Y111.419
M204 S1800
M205 X8 Y8
G1 F1500 X105.078 Y91.615 E69.34477
M204 S3000
M205 X10 Y10
G0 F3000 X104.286 Y91.614
M204 S1800
M205 X8 Y8
G1 F1500 X124.882 Y112.211 E70.70108
M204 S3000
M205 X10 Y10
G0 F3000 X124.882 Y113.003
M204 S1800
M205 X8 Y8
G1 F1500 X103.494 Y91.614 E72.10955
M204 S3000
M205 X10 Y10
G0 F3000 X102.702 Y91.614
M204 S1800
M205 X8 Y8
G1 F1500 X124.883 Y113.796 E73.57024
M204 S3000
M205 X10 Y10
G0 F3000 X124.883 Y114.588
M204 S1800
M205 X8 Y8
G1 F1500 X101.91 Y91.614 E75.08308
M204 S3000
M205 X10 Y10
G0 F3000 X101.118 Y91.614
M204 S1800
M205 X8 Y8
G1 F1500 X124.883 Y115.38 E76.64808
M204 S3000
M205 X10 Y10
G0 F3000 X124.884 Y116.172
M204 S1800
M205 X8 Y8
G1 F1500 X100.326 Y91.614 E78.26527
M204 S3000
M205 X10 Y10
G0 F3000 X99.534 Y91.614
M204 S1800
M205 X8 Y8
G1 F1500 X124.884 Y116.964 E79.93461
M204 S3000
M205 X10 Y10
G0 F3000 X124.884 Y117.756
M204 S1800
M205 X8 Y8
G1 F1500 X98.742 Y91.614 E81.65611
M204 S3000
M205 X10 Y10
G0 F3000 X97.95 Y91.614
M204 S1800
M205 X8 Y8
G1 F1500 X124.719 Y118.383 E83.41889
M204 S3000
M205 X10 Y10
G0 F3000 X123.927 Y118.383
M204 S1800
M205 X8 Y8
G1 F1500 X97.158 Y91.614 E85.18167
M204 S3000
M205 X10 Y10
G0 F3000 X96.366 Y91.614
M204 S1800
M205 X8 Y8
G1 F1500 X123.135 Y118.383 E86.94446
M204 S3000
M205 X10 Y10
G0 F3000 X122.343 Y118.383
M204 S1800
M205 X8 Y8
G1 F1500 X95.574 Y91.614 E88.70724
M204 S3000
M205 X10 Y10
G0 F3000 X94.782 Y91.614
M204 S1800
M205 X8 Y8
G1 F1500 X121.551 Y118.383 E90.47003
M204 S3000
M205 X10 Y10
G0 F3000 X120.759 Y118.383
M204 S1800
M205 X8 Y8
G1 F1500 X93.99 Y91.614 E92.23281
M204 S3000
M205 X10 Y10
G0 F3000 X93.198 Y91.614
M204 S1800
M205 X8 Y8
G1 F1500 X119.967 Y118.383 E93.9956
M204 S3000
M205 X10 Y10
G0 F3000 X119.175 Y118.383
M204 S1800
M205 X8 Y8
G1 F1500 X92.406 Y91.614 E95.75838
M204 S3000
M205 X10 Y10
G0 F3000 X91.614 Y91.614
M204 S1800
M205 X8 Y8
G1 F1500 X118.383 Y118.383 E97.52116
M204 S3000
M205 X10 Y10
G0 F3000 X117.591 Y118.383
M204 S1800
M205 X8 Y8
G1 F1500 X90.822 Y91.614 E99.28395
M204 S3000
M205 X10 Y10
G0 F3000 X90.03 Y91.614
M204 S1800
M205 X8 Y8
G1 F1500 X116.799 Y118.383 E101.04673
M204 S3000
M205 X10 Y10
G0 F3000 X116.007 Y118.383
M204 S1800
M205 X8 Y8
G1 F1500 X89.238 Y91.614 E102.80952
M204 S3000
M205 X10 Y10
G0 F3000 X88.447 Y91.614
M204 S1800
M205 X8 Y8
G1 F1500 X115.215 Y118.383 E104.57227
M204 S3000
M205 X10 Y10
G0 F3000 X114.424 Y118.383
M204 S1800
M205 X8 Y8
G1 F1500 X87.655 Y91.614 E106.33505
M204 S3000
M205 X10 Y10
G0 F3000 X86.863 Y91.614
M204 S1800
M205 X8 Y8
G1 F1500 X113.632 Y118.383 E108.09784
M204 S3000
M205 X10 Y10
G0 F3000 X112.84 Y118.383
M204 S1800
M205 X8 Y8
G1 F1500 X86.071 Y91.614 E109.86062
M204 S3000
M205 X10 Y10
G0 F3000 X85.279 Y91.614
M204 S1800
M205 X8 Y8
G1 F1500 X112.048 Y118.383 E111.62341
M204 S3000
M205 X10 Y10
G0 F3000 X111.256 Y118.383
M204 S1800
M205 X8 Y8
G1 F1500 X85.114 Y92.242 E113.34487
M204 S3000
M205 X10 Y10
G0 F3000 X85.114 Y93.034
M204 S1800
M205 X8 Y8
G1 F1500 X110.464 Y118.383 E115.01418
M204 S3000
M205 X10 Y10
G0 F3000 X109.672 Y118.383
M204 S1800
M205 X8 Y8
G1 F1500 X85.114 Y93.825 E116.63136
M204 S3000
M205 X10 Y10
G0 F3000 X85.115 Y94.618
M204 S1800
M205 X8 Y8
G1 F1500 X108.88 Y118.383 E118.19633
M204 S3000
M205 X10 Y10
G0 F3000 X108.088 Y118.383
M204 S1800
M205 X8 Y8
G1 F1500 X85.115 Y95.41 E119.70914
M204 S3000
M205 X10 Y10
G0 F3000 X85.115 Y96.203
M204 S1800
M205 X8 Y8
G1 F1500 X107.296 Y118.383 E121.16976
M204 S3000
M205 X10 Y10
G0 F3000 X106.504 Y118.383
M204 S1800
M205 X8 Y8
G1 F1500 X85.115 Y96.995 E122.57823
M204 S3000
M205 X10 Y10
G0 F3000 X85.115 Y97.787
M204 S1800
M205 X8 Y8
G1 F1500 X105.712 Y118.383 E123.93455
M204 S3000
M205 X10 Y10
G0 F3000 X104.92 Y118.383
M204 S1800
M205 X8 Y8
G1 F1500 X85.116 Y98.579 E125.23868
M204 S3000
M205 X10 Y10
G0 F3000 X85.116 Y99.371
M204 S1800
M205 X8 Y8
G1 F1500 X104.128 Y118.383 E126.49065
M204 S3000
M205 X10 Y10
G0 F3000 X103.336 Y118.383
M204 S1800
M205 X8 Y8
G1 F1500 X85.116 Y100.163 E127.69047
M204 S3000
M205 X10 Y10
G0 F3000 X85.117 Y100.956
M204 S1800
M205 X8 Y8
G1 F1500 X102.544 Y118.383 E128.83806
M204 S3000
M205 X10 Y10
G0 F3000 X101.752 Y118.383
M204 S1800
M205 X8 Y8
G1 F1500 X85.117 Y101.748 E129.93351
M204 S3000
M205 X10 Y10
G0 F3000 X85.117 Y102.54
M204 S1800
M205 X8 Y8
G1 F1500 X100.96 Y118.383 E130.9768
M204 S3000
M205 X10 Y10
G0 F3000 X100.168 Y118.383
M204 S1800
M205 X8 Y8
G1 F1500 X85.117 Y103.333 E131.9679
M204 S3000
M205 X10 Y10
G0 F3000 X85.117 Y104.125
M204 S1800
M205 X8 Y8
G1 F1500 X99.376 Y118.383 E132.90684
M204 S3000
M205 X10 Y10
G0 F3000 X98.584 Y118.383
M204 S1800
M205 X8 Y8
G1 F1500 X85.117 Y104.916 E133.79367
M204 S3000
M205 X10 Y10
G0 F3000 X85.118 Y105.709
M204 S1800
M205 X8 Y8
G1 F1500 X97.792 Y118.383 E134.62827
M204 S3000
M205 X10 Y10
G0 F3000 X97 Y118.383
M204 S1800
M205 X8 Y8
